1-js/06-advanced-functions/03-closure/variable-scope-lookup.svg

<svg xmlns="http://www.w3.org/2000/svg" width="374" height="191" viewBox="0 0 374 191"><defs><style>@import url(https://fonts.googleapis.com/css?family=Open+Sans:bold,italic,bolditalic%7CPT+Mono);@font-face{font-family:&apos;PT Mono&apos;;font-weight:700;font-style:normal;src:local(&apos;PT MonoBold&apos;),url(/font/PTMonoBold.woff2) format(&apos;woff2&apos;),url(/font/PTMonoBold.woff) format(&apos;woff&apos;),url(/font/PTMonoBold.ttf) format(&apos;truetype&apos;)}</style></defs><g id="closure" fill="none" fill-rule="evenodd" stroke="none" stroke-width="1"><g id="variable-scope-lookup.svg"><text id="function" fill="#1C85B5" font-family="PTMono-Regular, PT Mono" font-size="14" font-weight="normal"><tspan x="13" y="30">function</tspan></text><text id="Use" fill="#181717" font-family="PTMono-Regular, PT Mono" font-size="14" font-weight="normal"><tspan x="88" y="30">Use</tspan></text><text id="r" fill="#181717" font-family="PTMono-Regular, PT Mono" font-size="14" font-weight="normal"><tspan x="113" y="30">r</tspan></text><text id="(" fill="#7E7C7B" font-family="PTMono-Regular, PT Mono" font-size="14" font-weight="normal"><tspan x="122" y="30">(</tspan></text><text id="nam" fill="#181717" font-family="PTMono-Regular, PT Mono" font-size="14" font-weight="normal"><tspan x="130" y="30">nam</tspan></text><text id="e" fill="#181717" font-family="PTMono-Regular, PT Mono" font-size="14" font-weight="normal"><tspan x="155" y="30">e</tspan></text><text id=")" fill="#7E7C7B" font-family="PTMono-Regular, PT Mono" font-size="14" font-weight="normal"><tspan x="164" y="30">)</tspan></text><text id="{" fill="#7E7C7B" font-family="PTMono-Regular, PT Mono" font-size="14" font-weight="normal"><tspan x="180" y="30">{</tspan></text><text id="thi" fill="#1C85B5" font-family="PTMono-Regular, PT Mono" font-size="14" font-weight="normal"><tspan x="29" y="62">thi</tspan></text><text id="s" fill="#1C85B5" font-family="PTMono-Regular, PT Mono" font-size="14" font-weight="normal"><tspan x="54" y="62">s</tspan></text><text id="." fill="#7E7C7B" font-family="PTMono-Regular, PT Mono" font-size="14" font-weight="normal"><tspan x="63" y="62">.</tspan></text><text id="sayHi" fill="#181717" font-family="PTMono-Regular, PT Mono" font-size="14" font-weight="normal"><tspan x="71" y="62">sayHi</tspan></text><text id="=" fill="#DBAF88" font-family="PTMono-Regular, PT Mono" font-size="14" font-weight="normal"><tspan x="122" y="62">=</tspan></text><text id="functio" fill="#1C85B5" font-family="PTMono-Regular, PT Mono" font-size="14" font-weight="normal"><tspan x="138" y="62">functio</tspan></text><text id="n" fill="#1C85B5" font-family="PTMono-Regular, PT Mono" font-size="14" font-weight="normal"><tspan x="197" y="62">n</tspan></text><text id="(" fill="#7E7C7B" font-family="PTMono-Regular, PT Mono" font-size="14" font-weight="normal"><tspan x="206" y="62">(</tspan></text><text id=")" fill="#7E7C7B" font-family="PTMono-Regular, PT Mono" font-size="14" font-weight="normal"><tspan x="214" y="62">)</tspan></text><text id="{" fill="#7E7C7B" font-family="PTMono-Regular, PT Mono" font-size="14" font-weight="normal"><tspan x="231" y="62">{</tspan></text><text id="aler" fill="#181717" font-family="PTMono-Regular, PT Mono" font-size="14" font-weight="normal"><tspan x="46" y="77">aler</tspan></text><text id="t" fill="#181717" font-family="PTMono-Regular, PT Mono" font-size="14" font-weight="normal"><tspan x="80" y="77">t</tspan></text><text id="(" fill="#7E7C7B" font-family="PTMono-Regular, PT Mono" font-size="14" font-weight="normal"><tspan x="88" y="77">(</tspan></text><text id="nam" fill="#181717" font-family="PTMono-Regular, PT Mono" font-size="14" font-weight="normal"><tspan x="96" y="77">nam</tspan></text><text id="e" fill="#181717" font-family="PTMono-Regular, PT Mono" font-size="14" font-weight="normal"><tspan x="122" y="77">e</tspan></text><text id=")" fill="#7E7C7B" font-family="PTMono-Regular, PT Mono" font-size="14" font-weight="normal"><tspan x="130" y="77">)</tspan></text><text id=";" fill="#7E7C7B" font-family="PTMono-Regular, PT Mono" font-size="14" font-weight="normal"><tspan x="138" y="77">;</tspan></text><text id="}" fill="#7E7C7B" font-family="PTMono-Regular, PT Mono" font-size="14" font-weight="normal"><tspan x="29" y="93">}</tspan></text><text id=";" fill="#7E7C7B" font-family="PTMono-Regular, PT Mono" font-size="14" font-weight="normal"><tspan x="38" y="93">;</tspan></text><text id="}" fill="#7E7C7B" font-family="PTMono-Regular, PT Mono" font-size="14" font-weight="normal"><tspan x="13" y="124">}</tspan></text><text id="let" fill="#1C85B5" font-family="PTMono-Regular, PT Mono" font-size="14" font-weight="normal"><tspan x="13" y="156">let</tspan></text><text id="user" fill="#181717" font-family="PTMono-Regular, PT Mono" font-size="14" font-weight="normal"><tspan x="46" y="156">user</tspan></text><text id="=" fill="#DBAF88" font-family="PTMono-Regular, PT Mono" font-size="14" font-weight="normal"><tspan x="88" y="156">=</tspan></text><text id="new" fill="#1C85B5" font-family="PTMono-Regular, PT Mono" font-size="14" font-weight="normal"><tspan x="105" y="156">new</tspan></text><text id="Use" fill="#181717" font-family="PTMono-Regular, PT Mono" font-size="14" font-weight="normal"><tspan x="138" y="156">Use</tspan></text><text id="r" fill="#181717" font-family="PTMono-Regular, PT Mono" font-size="14" font-weight="normal"><tspan x="164" y="156">r</tspan></text><text id="(" fill="#7E7C7B" font-family="PTMono-Regular, PT Mono" font-size="14" font-weight="normal"><tspan x="172" y="156">(</tspan></text><text id="&quot;John" fill="#478964" font-family="PTMono-Regular, PT Mono" font-size="14" font-weight="normal"><tspan x="180" y="156">&quot;John</tspan></text><text id="&quot;" fill="#478964" font-family="PTMono-Regular, PT Mono" font-size="14" font-weight="normal"><tspan x="222" y="156">&quot;</tspan></text><text id=")" fill="#7E7C7B" font-family="PTMono-Regular, PT Mono" font-size="14" font-weight="normal"><tspan x="231" y="156">)</tspan></text><text id=";" fill="#7E7C7B" font-family="PTMono-Regular, PT Mono" font-size="14" font-weight="normal"><tspan x="239" y="156">;</tspan></text><text id="use" fill="#181717" font-family="PTMono-Regular, PT Mono" font-size="14" font-weight="normal"><tspan x="13" y="171">use</tspan></text><text id="r" fill="#181717" font-family="PTMono-Regular, PT Mono" font-size="14" font-weight="normal"><tspan x="38" y="171">r</tspan></text><text id="." fill="#7E7C7B" font-family="PTMono-Regular, PT Mono" font-size="14" font-weight="normal"><tspan x="46" y="171">.</tspan></text><text id="sayH" fill="#181717" font-family="PTMono-Regular, PT Mono" font-size="14" font-weight="normal"><tspan x="54" y="171">sayH</tspan></text><text id="i" fill="#181717" font-family="PTMono-Regular, PT Mono" font-size="14" font-weight="normal"><tspan x="88" y="171">i</tspan></text><text id="(" fill="#7E7C7B" font-family="PTMono-Regular, PT Mono" font-size="14" font-weight="normal"><tspan x="96" y="171">(</tspan></text><text id=")" fill="#7E7C7B" font-family="PTMono-Regular, PT Mono" font-size="14" font-weight="normal"><tspan x="105" y="171">)</tspan></text><text id=";" fill="#7E7C7B" font-family="PTMono-Regular, PT Mono" font-size="14" font-weight="normal"><tspan x="113" y="171">;</tspan></text><g id="Group-5" stroke="#C06334" stroke-linecap="square" transform="translate(247 49)"><path id="Line" d="M.129.5h7.742"/><path id="Line-Copy" d="M.129 55.5h7.742"/><path id="Line-Copy-2" d="M8.5.622v54.756"/></g><g id="Group-5-Copy" stroke="#C06334" stroke-linecap="square" transform="translate(293 17)"><path id="Line" d="M.129.5h7.742"/><path id="Line-Copy" d="M.129 109.5h7.742"/><path id="Line-Copy-2" d="M8.5 1.222v107.556"/></g><g id="Group-5-Copy" stroke="#C06334" stroke-linecap="square" transform="matrix(-1 0 0 1 345 3)"><path id="Line-Copy-2" d="M3 2.078v182.844"/></g><path id="Line" fill="#C06334" fill-rule="nonzero" d="M279.5 69.5l14 7-14 7v-6h-14v-2h14v-6zM322.5 69.5l14 7-14 7v-6h-14v-2h14v-6z"/></g></g></svg>

<?xml version="1.0" encoding="UTF-8"?>
<svg width="374px" height="191px" viewBox="0 0 374 191" version="1.1" xmlns="http://www.w3.org/2000/svg" xmlns:xlink="http://www.w3.org/1999/xlink">
    <!-- Generator: sketchtool 61.2 (101010) - https://sketch.com -->
    <title>variable-scope-lookup.svg</title>
    <desc>Created with sketchtool.</desc>
    <g id="closure" stroke="none" stroke-width="1" fill="none" fill-rule="evenodd">
        <g id="variable-scope-lookup.svg">
            <text id="function" font-family="PTMono-Regular, PT Mono" font-size="14" font-weight="normal" fill="#0077AA">
                <tspan x="13" y="30">function</tspan>
            </text>
            <text id="-" font-family="PTMono-Regular, PT Mono" font-size="14" font-weight="normal"></text>
            <text id="Use" font-family="PTMono-Regular, PT Mono" font-size="14" font-weight="normal" fill="#333333">
                <tspan x="88" y="30">Use</tspan>
            </text>
            <text id="r" font-family="PTMono-Regular, PT Mono" font-size="14" font-weight="normal" fill="#333333">
                <tspan x="113" y="30">r</tspan>
            </text>
            <text id="(" font-family="PTMono-Regular, PT Mono" font-size="14" font-weight="normal" fill="#999999">
                <tspan x="122" y="30">(</tspan>
            </text>
            <text id="nam" font-family="PTMono-Regular, PT Mono" font-size="14" font-weight="normal" fill="#333333">
                <tspan x="130" y="30">nam</tspan>
            </text>
            <text id="e" font-family="PTMono-Regular, PT Mono" font-size="14" font-weight="normal" fill="#333333">
                <tspan x="155" y="30">e</tspan>
            </text>
            <text id=")" font-family="PTMono-Regular, PT Mono" font-size="14" font-weight="normal" fill="#999999">
                <tspan x="164" y="30">)</tspan>
            </text>
            <text id="-" font-family="PTMono-Regular, PT Mono" font-size="14" font-weight="normal"></text>
            <text id="{" font-family="PTMono-Regular, PT Mono" font-size="14" font-weight="normal" fill="#999999">
                <tspan x="180" y="30">{</tspan>
            </text>
            <text id="-" font-family="PTMono-Regular, PT Mono" font-size="14" font-weight="normal"></text>
            <text id="-" font-family="PTMono-Regular, PT Mono" font-size="14" font-weight="normal"></text>
            <text id="-" font-family="PTMono-Regular, PT Mono" font-size="14" font-weight="normal"></text>
            <text id="-" font-family="PTMono-Regular, PT Mono" font-size="14" font-weight="normal"></text>
            <text id="thi" font-family="PTMono-Regular, PT Mono" font-size="14" font-weight="normal" fill="#0077AA">
                <tspan x="29" y="62">thi</tspan>
            </text>
            <text id="s" font-family="PTMono-Regular, PT Mono" font-size="14" font-weight="normal" fill="#0077AA">
                <tspan x="54" y="62">s</tspan>
            </text>
            <text id="." font-family="PTMono-Regular, PT Mono" font-size="14" font-weight="normal" fill="#999999">
                <tspan x="63" y="62">.</tspan>
            </text>
            <text id="sayHi" font-family="PTMono-Regular, PT Mono" font-size="14" font-weight="normal" fill="#333333">
                <tspan x="71" y="62">sayHi</tspan>
            </text>
            <text id="-" font-family="PTMono-Regular, PT Mono" font-size="14" font-weight="normal"></text>
            <text id="=" font-family="PTMono-Regular, PT Mono" font-size="14" font-weight="normal" fill="#A67F59">
                <tspan x="122" y="62">=</tspan>
            </text>
            <text id="-" font-family="PTMono-Regular, PT Mono" font-size="14" font-weight="normal"></text>
            <text id="functio" font-family="PTMono-Regular, PT Mono" font-size="14" font-weight="normal" fill="#0077AA">
                <tspan x="138" y="62">functio</tspan>
            </text>
            <text id="n" font-family="PTMono-Regular, PT Mono" font-size="14" font-weight="normal" fill="#0077AA">
                <tspan x="197" y="62">n</tspan>
            </text>
            <text id="(" font-family="PTMono-Regular, PT Mono" font-size="14" font-weight="normal" fill="#999999">
                <tspan x="206" y="62">(</tspan>
            </text>
            <text id=")" font-family="PTMono-Regular, PT Mono" font-size="14" font-weight="normal" fill="#999999">
                <tspan x="214" y="62">)</tspan>
            </text>
            <text id="-" font-family="PTMono-Regular, PT Mono" font-size="14" font-weight="normal"></text>
            <text id="{" font-family="PTMono-Regular, PT Mono" font-size="14" font-weight="normal" fill="#999999">
                <tspan x="231" y="62">{</tspan>
            </text>
            <text id="-" font-family="PTMono-Regular, PT Mono" font-size="14" font-weight="normal"></text>
            <text id="---" font-family="PTMono-Regular, PT Mono" font-size="14" font-weight="normal"></text>
            <text id="-" font-family="PTMono-Regular, PT Mono" font-size="14" font-weight="normal"></text>
            <text id="aler" font-family="PTMono-Regular, PT Mono" font-size="14" font-weight="normal" fill="#333333">
                <tspan x="46" y="77">aler</tspan>
            </text>
            <text id="t" font-family="PTMono-Regular, PT Mono" font-size="14" font-weight="normal" fill="#333333">
                <tspan x="80" y="77">t</tspan>
            </text>
            <text id="(" font-family="PTMono-Regular, PT Mono" font-size="14" font-weight="normal" fill="#999999">
                <tspan x="88" y="77">(</tspan>
            </text>
            <text id="nam" font-family="PTMono-Regular, PT Mono" font-size="14" font-weight="normal" fill="#333333">
                <tspan x="96" y="77">nam</tspan>
            </text>
            <text id="e" font-family="PTMono-Regular, PT Mono" font-size="14" font-weight="normal" fill="#333333">
                <tspan x="122" y="77">e</tspan>
            </text>
            <text id=")" font-family="PTMono-Regular, PT Mono" font-size="14" font-weight="normal" fill="#999999">
                <tspan x="130" y="77">)</tspan>
            </text>
            <text id=";" font-family="PTMono-Regular, PT Mono" font-size="14" font-weight="normal" fill="#999999">
                <tspan x="138" y="77">;</tspan>
            </text>
            <text id="-" font-family="PTMono-Regular, PT Mono" font-size="14" font-weight="normal"></text>
            <text id="-" font-family="PTMono-Regular, PT Mono" font-size="14" font-weight="normal"></text>
            <text id="-" font-family="PTMono-Regular, PT Mono" font-size="14" font-weight="normal"></text>
            <text id="}" font-family="PTMono-Regular, PT Mono" font-size="14" font-weight="normal" fill="#999999">
                <tspan x="29" y="93">}</tspan>
            </text>
            <text id=";" font-family="PTMono-Regular, PT Mono" font-size="14" font-weight="normal" fill="#999999">
                <tspan x="38" y="93">;</tspan>
            </text>
            <text id="-" font-family="PTMono-Regular, PT Mono" font-size="14" font-weight="normal"></text>
            <text id="-" font-family="PTMono-Regular, PT Mono" font-size="14" font-weight="normal"></text>
            <text id="}" font-family="PTMono-Regular, PT Mono" font-size="14" font-weight="normal" fill="#999999">
                <tspan x="13" y="124">}</tspan>
            </text>
            <text id="-" font-family="PTMono-Regular, PT Mono" font-size="14" font-weight="normal"></text>
            <text id="-" font-family="PTMono-Regular, PT Mono" font-size="14" font-weight="normal"></text>
            <text id="let" font-family="PTMono-Regular, PT Mono" font-size="14" font-weight="normal" fill="#0077AA">
                <tspan x="13" y="156">let</tspan>
            </text>
            <text id="-" font-family="PTMono-Regular, PT Mono" font-size="14" font-weight="normal"></text>
            <text id="user" font-family="PTMono-Regular, PT Mono" font-size="14" font-weight="normal" fill="#333333">
                <tspan x="46" y="156">user</tspan>
            </text>
            <text id="-" font-family="PTMono-Regular, PT Mono" font-size="14" font-weight="normal"></text>
            <text id="=" font-family="PTMono-Regular, PT Mono" font-size="14" font-weight="normal" fill="#A67F59">
                <tspan x="88" y="156">=</tspan>
            </text>
            <text id="-" font-family="PTMono-Regular, PT Mono" font-size="14" font-weight="normal"></text>
            <text id="new" font-family="PTMono-Regular, PT Mono" font-size="14" font-weight="normal" fill="#0077AA">
                <tspan x="105" y="156">new</tspan>
            </text>
            <text id="-" font-family="PTMono-Regular, PT Mono" font-size="14" font-weight="normal"></text>
            <text id="Use" font-family="PTMono-Regular, PT Mono" font-size="14" font-weight="normal" fill="#333333">
                <tspan x="138" y="156">Use</tspan>
            </text>
            <text id="r" font-family="PTMono-Regular, PT Mono" font-size="14" font-weight="normal" fill="#333333">
                <tspan x="164" y="156">r</tspan>
            </text>
            <text id="(" font-family="PTMono-Regular, PT Mono" font-size="14" font-weight="normal" fill="#999999">
                <tspan x="172" y="156">(</tspan>
            </text>
            <text id="&quot;John" font-family="PTMono-Regular, PT Mono" font-size="14" font-weight="normal" fill="#669900">
                <tspan x="180" y="156">"John</tspan>
            </text>
            <text id="&quot;" font-family="PTMono-Regular, PT Mono" font-size="14" font-weight="normal" fill="#669900">
                <tspan x="222" y="156">"</tspan>
            </text>
            <text id=")" font-family="PTMono-Regular, PT Mono" font-size="14" font-weight="normal" fill="#999999">
                <tspan x="231" y="156">)</tspan>
            </text>
            <text id=";" font-family="PTMono-Regular, PT Mono" font-size="14" font-weight="normal" fill="#999999">
                <tspan x="239" y="156">;</tspan>
            </text>
            <text id="-" font-family="PTMono-Regular, PT Mono" font-size="14" font-weight="normal"></text>
            <text id="use" font-family="PTMono-Regular, PT Mono" font-size="14" font-weight="normal" fill="#333333">
                <tspan x="13" y="171">use</tspan>
            </text>
            <text id="r" font-family="PTMono-Regular, PT Mono" font-size="14" font-weight="normal" fill="#333333">
                <tspan x="38" y="171">r</tspan>
            </text>
            <text id="." font-family="PTMono-Regular, PT Mono" font-size="14" font-weight="normal" fill="#999999">
                <tspan x="46" y="171">.</tspan>
            </text>
            <text id="sayH" font-family="PTMono-Regular, PT Mono" font-size="14" font-weight="normal" fill="#333333">
                <tspan x="54" y="171">sayH</tspan>
            </text>
            <text id="i" font-family="PTMono-Regular, PT Mono" font-size="14" font-weight="normal" fill="#333333">
                <tspan x="88" y="171">i</tspan>
            </text>
            <text id="(" font-family="PTMono-Regular, PT Mono" font-size="14" font-weight="normal" fill="#999999">
                <tspan x="96" y="171">(</tspan>
            </text>
            <text id=")" font-family="PTMono-Regular, PT Mono" font-size="14" font-weight="normal" fill="#999999">
                <tspan x="105" y="171">)</tspan>
            </text>
            <text id=";" font-family="PTMono-Regular, PT Mono" font-size="14" font-weight="normal" fill="#999999">
                <tspan x="113" y="171">;</tspan>
            </text>
            <text id="-" font-family="PTMono-Regular, PT Mono" font-size="14" font-weight="normal"></text>
            <g id="Group-5" transform="translate(247.000000, 49.000000)" stroke="#EE6B47" stroke-linecap="square">
                <line x1="0.129032258" y1="0.5" x2="7.87096774" y2="0.5" id="Line"></line>
                <line x1="0.129032258" y1="55.5" x2="7.87096774" y2="55.5" id="Line-Copy"></line>
                <line x1="8.5" y1="0.622222222" x2="8.5" y2="55.3777778" id="Line-Copy-2"></line>
            </g>
            <g id="Group-5-Copy" transform="translate(293.000000, 17.000000)" stroke="#EE6B47" stroke-linecap="square">
                <line x1="0.129032258" y1="0.5" x2="7.87096774" y2="0.5" id="Line"></line>
                <line x1="0.129032258" y1="109.5" x2="7.87096774" y2="109.5" id="Line-Copy"></line>
                <line x1="8.5" y1="1.22222222" x2="8.5" y2="108.777778" id="Line-Copy-2"></line>
            </g>
            <g id="Group-5-Copy" transform="translate(342.000000, 96.500000) scale(-1, 1) translate(-342.000000, -96.500000) translate(339.000000, 3.000000)" stroke="#EE6B47" stroke-linecap="square">
                <line x1="3" y1="2.07777778" x2="3" y2="184.922222" id="Line-Copy-2"></line>
            </g>
            <path id="Line" d="M279.5,69.5 L293.5,76.5 L279.5,83.5 L279.5,77.5 L265.5,77.5 L265.5,75.5 L279.5,75.5 L279.5,69.5 Z" fill="#EE6B47" fill-rule="nonzero"></path>
            <path id="Line" d="M322.5,69.5 L336.5,76.5 L322.5,83.5 L322.5,77.5 L308.5,77.5 L308.5,75.5 L322.5,75.5 L322.5,69.5 Z" fill="#EE6B47" fill-rule="nonzero"></path>
        </g>
    </g>
</svg>
